X:1
T:Title
%%score { ( 1 3 ) | 2 }
L:1/8
M:6/8
K:C
V:1 treble nm="Grand Piano"
V:3 treble 
V:2 bass 
V:1
 z3 z2[Q:1/4=84] G | [Ec][Fc][Gc] [Ac][GB][FA] | [EG]3 [CE]2 [CE] | [B,D][CE][DF] [FA][EG][DF] | %4
[M:5/8] E-E- E3 |[M:1/8] G |[M:3/4] [Ec][Fc] [Gc][CAc] [CGB][CFA] | [CEG]3 [G,CE]2 [G,CE] | %8
 [G,B,D][B,DG] [CDA][DGB] [B,G][C^FA] |[M:5/8] [G,B,G]-[G,B,G]- [G,B,G]3 |[M:1/8] G | %11
[M:3/4] dc B[FA] [EG][DF] | [CE]3 [EG]2 [EG] | AA A[^FA] [Fd][Fc] |[M:5/8] [DGB]-[DGB]- [DGB]3 | %15
[M:1/8] [B,FG] |[M:3/4] [CEc][CFc] [CGc][CAc] [CGB][CFA] | [CEG]3 [G,CE]2 [Ec] | %18
 BB B[FB] [FA][FB] |[M:5/8] [Ec]-[Ec]- [Ec]3 |[M:1/8] G |[M:3/4] G2 GG AB | [Ec][GB] [FA][EG] EG | %23
 z2 EE AB |[M:5/8] cBc d2 |[M:1/8] G |[M:3/4] e4 z2 | [Af][Af] Ad dc | BB B[FB] [FA][FB] | %29
[M:5/8] [Ec]-[Ec]- [Ec]3 |] %30
V:2
 z3 z2 G, | [C,G,][D,G,][E,G,] [F,C][F,C][F,C] | [C,C]3 [C,G,]2 [C,G,] | %3
 [G,,G,][G,,G,][G,,G,] [G,,G,][A,,G,][B,,G,] |[M:5/8] [C,G,C]-[C,G,C]- [C,G,C]3 |[M:1/8] G, | %6
[M:3/4] [C,G,][D,G,] [E,G,]F, F,F, | C,3 C,2 C, | D,D, D,D, D,D, |[M:5/8] G,,-G,,- G,,3 | %10
[M:1/8] [G,B,] |[M:3/4][K:treble] [G,B,F][G,CE][K:bass] [G,D][G,,G,] [G,,G,][G,,G,] | %12
 [C,G,]3 [C,C]2 [C,C] | [F,CF][F,CF] [F,CF][D,D] [D,D][D,D] |[M:5/8] G,-G,- G,3 |[M:1/8] G, | %16
[M:3/4] C,D, E,F, F,F, | C,3 C,2 [C,G,] | [G,D][G,D] [G,D][G,,G,] [G,,G,][G,,G,] | %19
[M:5/8] [C,G,]-[C,G,]- [C,G,]3 |[M:1/8] z |[M:3/4] z2[K:treble] [G,B,][G,B,] [G,C^F][G,D=F] | %22
 [C,C][C,C] [C,C][C,C] .[C,G,C]2 | z2 [C,C][C,C][K:treble] [F,CF][G,D] | %24
[M:5/8] [A,CE][A,CE][A,D^F] [G,B,G]2 |[M:1/8] z |[M:3/4] z2[K:bass] [C,C]C[K:treble] [C_B][CB] | %27
 [F,C][F,C] [F,CF][F,A,F] [F,A,F][F,A,F] | [G,D][G,D] [G,D][G,,G,] [G,,G,][G,,G,] | %29
[M:5/8] [C,G,]-[C,G,]- [C,G,]3 |] %30
V:3
 x6 | x6 | x6 | x6 |[M:5/8] x5 |[M:1/8] x |[M:3/4] x6 | x6 | x6 |[M:5/8] x5 |[M:1/8] x | %11
[M:3/4] x6 | x6 | x6 |[M:5/8] x5 |[M:1/8] x |[M:3/4] x6 | x6 | x6 |[M:5/8] x5 |[M:1/8] x | %21
[M:3/4] x6 | x6 | G4 z2 |[M:5/8] x5 |[M:1/8] x |[M:3/4] z2 G_B dc | x6 | x6 |[M:5/8] x5 |] %30

